icons/op-phone-24.svg

<svg width="24" height="24" viewBox="0 0 24 24" fill="none" xmlns="http://www.w3.org/2000/svg">
<path d="M18.6825 16.4819L18.5934 16.2937C18.3556 15.6976 15.4732 14.8191 15.2354 14.7877C15.176 14.7877 15.1166 14.7877 15.0571 14.8191C14.6411 14.9132 14.2251 15.2897 13.3039 16.1368C12.2638 15.6348 10.8671 14.3172 10.2134 13.5014C9.47046 12.6544 8.57897 11.2112 8.25209 10.1445C9.29216 9.17195 9.73791 8.7641 9.76762 8.29351C9.79734 8.04252 9.29216 4.90521 8.75727 4.5601C8.72755 4.5601 8.66812 4.49736 8.60869 4.46598C8.28181 4.24637 7.77663 3.90127 7.21202 4.02676C7.06344 4.05813 6.94457 4.12088 6.8257 4.18362C6.43939 4.43461 5.51819 5.12482 5.10216 6.00327C4.86443 6.53661 4.74556 11.5249 8.28181 15.7603C11.7883 19.9329 16.0972 20.1212 16.751 19.9643H16.8401C17.7019 19.6192 18.4448 18.7408 18.742 18.3643C19.2471 17.7055 18.8905 16.9211 18.6825 16.4819Z" fill="black"/>
</svg>

<svg xmlns="http://www.w3.org/2000/svg" width="24" height="24" viewBox="0 0 24 24"><path d="m18.683 16.482-.09-.188c-.237-.596-3.12-1.475-3.358-1.506-.059 0-.118 0-.178.031-.416.094-.832.471-1.753 1.318-1.04-.502-2.437-1.82-3.091-2.636-.743-.847-1.634-2.29-1.961-3.356 1.04-.973 1.486-1.381 1.516-1.851.029-.251-.476-3.389-1.011-3.734-.029 0-.089-.063-.148-.094-.327-.22-.832-.565-1.397-.439-.149.031-.267.094-.386.157-.387.251-1.308.941-1.724 1.819-.238.534-.356 5.522 3.18 9.757 3.506 4.173 7.815 4.361 8.469 4.204h.089c.862-.345 1.605-1.223 1.902-1.6.505-.658.148-1.443-.059-1.882Z"/></svg>
